svg/help.svg

<svg xmlns="http://www.w3.org/2000/svg" viewBox="0 0 24 24"><path d="M10 19h3v3h-3zm2-17c5.35.22 7.68 5.62 4.5 9.67-.83 1-2.17 1.66-2.83 2.5C13 15 13 16 13 17h-3c0-1.67 0-3.08.67-4.08.66-1 2-1.59 2.83-2.25C15.92 8.43 15.32 5.26 12 5a3 3 0 0 0-3 3H6a6 6 0 0 1 6-6"/></svg>

<?xml version="1.0" encoding="UTF-8"?><!DOCTYPE svg PUBLIC "-//W3C//DTD SVG 1.1//EN" "http://www.w3.org/Graphics/SVG/1.1/DTD/svg11.dtd"><svg xmlns="http://www.w3.org/2000/svg" xmlns:xlink="http://www.w3.org/1999/xlink" version="1.1" id="mdi-help" width="24" height="24" viewBox="0 0 24 24"><path d="M10,19H13V22H10V19M12,2C17.35,2.22 19.68,7.62 16.5,11.67C15.67,12.67 14.33,13.33 13.67,14.17C13,15 13,16 13,17H10C10,15.33 10,13.92 10.67,12.92C11.33,11.92 12.67,11.33 13.5,10.67C15.92,8.43 15.32,5.26 12,5A3,3 0 0,0 9,8H6A6,6 0 0,1 12,2Z" /></svg>
